X: 27752
T: Morning Star, The
R: reel
M: 4/4
K: Dmajor
GA|:B2 BA BGEF|G2 Bd efgd|B2 BA BGEF|GBAF G2GA|
B2BA BGEF|GABd efgd|B2BA BGDF|GBAF G2GA|
Bdef g2 eg|f2 df edBA|Bdef gfgb|afdf e2 ed|
Bdef g2 eg|f2 df edBA|B2d2 d2 ef|gfaf gedc:|
B2 BA BGEF|G2Bd efgd|B2BA BGEF|GBAF G2 GA|
B2BA BGEF|GABd efgd|B2BA BGEF|GBAF G2||

